!!!!SEGMENT: pl-sa--l-1636--054_anonim--keyboard-piece.krn
!!!id: 17xx:761
!!!COM: Anonim
!!!COM-rism: pe30004985
!!!CDT:
!!!CNT:
!!!OTL: Keyboard piece
!!!PDT:
!!!SMS-siglum: PL-SA
!!!SMS-shelfmark: L 1636
!!!NIFC-rismID: 1001076821
!!!URL-scan: http://repozytorium.nifc.pl/skany/pl-sa-nut--l1636
!!!ONB-nifc: 15r, skan 0018, s. 5
!!!SMS-variant:
!!!SMS-altvar:
**kern	**kern
*part2	*part1
*staff2	*staff1
*I"Organo	*I"Organo
*clefF4	*clefC1
*k[]	*k[]
*M2/2	*M2/2
*met(c|)	*met(c|)
=1	=1
!LO:SIC:o:s:=:v:all\right&colon;global	!
4G\	1b/ 1g/ 1d/
4F\	.
4E\	.
4D\	.
=2	=2
4C\	1cc\ 1g\ 1e\
4D\	.
4E\	.
4F\	.
=3	=3
4G\	1b/ 1g/ 1d/
4GG/	.
4BB/	.
4C/	.
=4	=4
4D\	1a/ 1f/ 1d/
4E\	.
4F\	.
4G\	.
=5	=5
4A\	1a/ 1e/ 1c/
4AA/	.
4C/	.
4D/	.
=6	=6
4E\	1g/ 1e/ 1c/
4F\	.
4E\	.
4D\	.
=7	=7
4C/	1cc\ 1g\ 1e\
4D/	.
4C/	.
4BB/	.
=8	=8
4AA/	1a/ 1e/ 1c/
4BB/	.
4C/	.
4AA/	.
=9	=9
*^	*
!LO:SIC:o:s:=:v:brak kreski taktowej	!	!LO:SIC:o:s:=:v:brak kreski taktowej
1G/	2.BB/	1b/ 1g/ 1d/
.	4C/	.
=10	=10	=10
*	*	*2\right
*	*	*^
*	*	*	*^
!	!	!LO:SIC:o:s:=:v:all\right&colon;global	!	!
2G/	1D\	1a/^	2g\	2.d\
!	!	!LO:SIC:o:s:=:v:nieczytelny zapis [przyjęto zgodnie z dolnym systemem]	!	!
2F#X/	.	.	2f#X\	.
.	.	.	.	4c\
*v	*v	*	*	*
*	*v	*v	*v
=11	=11
1G/ 1D/ 1GG/	1g/ 1d/ 1B/
==	==
*-	*-
!!!system-decoration: [(s1,s2)]
!!!EED: Leszek Kubiak
!!!EST: 2020-12-08
!!!ENC: Andrzej Kubiczek
!!!END: 2020-06-12
